src/assets/icons/fullscreen.svg

<?xml version="1.0" standalone="no"?><!DOCTYPE svg PUBLIC "-//W3C//DTD SVG 1.1//EN" "http://www.w3.org/Graphics/SVG/1.1/DTD/svg11.dtd"><svg t="1601191980487" class="icon" viewBox="0 0 1024 1024" version="1.1" xmlns="http://www.w3.org/2000/svg" p-id="1275" xmlns:xlink="http://www.w3.org/1999/xlink" width="200" height="200"><defs><style type="text/css"></style></defs><path d="M682.666667 128h256v256h-85.333334V213.333333h-170.666666V128zM85.333333 128h256v85.333333H170.666667v170.666667H85.333333V128z m768 682.666667v-170.666667h85.333334v256h-256v-85.333333h170.666666zM170.666667 810.666667h170.666666v85.333333H85.333333v-256h85.333334v170.666667z" p-id="1276"></path></svg>

<svg class="icon" viewBox="0 0 1024 1024" xmlns="http://www.w3.org/2000/svg" width="200" height="200"><path d="M682.667 128h256v256h-85.334V213.333H682.667V128zm-597.334 0h256v85.333H170.667V384H85.333V128zm768 682.667V640h85.334v256h-256v-85.333h170.666zm-682.666 0h170.666V896h-256V640h85.334v170.667z"/></svg>
